images_elementary_svg/cmd/lc_dataconsolidate.svg

<svg height="24" width="24" xmlns="http://www.w3.org/2000/svg" xmlns:xlink="http://www.w3.org/1999/xlink"><linearGradient id="a" gradientTransform="matrix(.44576989 0 0 .44993664 .801525 -.024539)" gradientUnits="userSpaceOnUse" x1="26.243305" x2="26.243305" xlink:href="#d" y1="4.354743" y2="57.840454"/><linearGradient id="b" gradientTransform="matrix(.44576989 0 0 .44993664 .801525 -.024539)" gradientUnits="userSpaceOnUse" x1="26.243305" x2="26.243305" xlink:href="#d" y1="17.83482" y2="73.398201"/><linearGradient id="c" gradientTransform="matrix(.44576989 0 0 .44993664 .801525 -.024539)" gradientUnits="userSpaceOnUse" x1="26.243305" x2="26.243305" xlink:href="#d" y1="33.392567" y2="88.955948"/><linearGradient id="d" gradientTransform="matrix(.44576989 0 0 .44993664 .801525 -.024539)" gradientUnits="userSpaceOnUse" x1="25.132275" x2="25.132275" y1="15.499894" y2="48.395687"><stop offset="0" stop-color="#fafafa"/><stop offset="1" stop-color="#e2e1de"/></linearGradient><g transform="matrix(-1 0 0 1 23 0)"><g transform="translate(0 -6)"><rect fill="url(#a)" height="4" rx=".527778" ry=".555556" width="5" x="16.5" y="18.5"/><path d="m16.5 18.5h5v4h-5z" fill="none" stroke="#575757" stroke-linecap="square" stroke-linejoin="round" stroke-opacity=".529412"/></g><g transform="translate(0 -11)"><rect fill="url(#b)" height="4" rx=".527778" ry=".555556" width="5" x="16.5" y="18.5"/><path d="m16.5 18.5h5v4h-5z" fill="none" stroke="#575757" stroke-linecap="square" stroke-linejoin="round" stroke-opacity=".529412"/></g><g transform="translate(0 -16)"><rect fill="url(#c)" height="4" rx=".527778" ry=".555556" width="5" x="16.5" y="18.5"/><path d="m16.5 18.5h5v4h-5z" fill="none" stroke="#575757" stroke-linecap="square" stroke-linejoin="round" stroke-opacity=".529412"/></g><g transform="translate(0 -1)"><rect fill="url(#a)" height="4" rx=".527778" ry=".555556" width="5" x="16.5" y="18.5"/><path d="m16.5 18.5h5v4h-5z" fill="none" stroke="#575757" stroke-linecap="square" stroke-linejoin="round" stroke-opacity=".529412"/></g><path d="m8.5 2.5v2h2v7 8h-2v2h2 2v-10-9h-2z" fill="#fcaf3e" stroke="#ce5c00" stroke-linecap="square" transform="matrix(-1 0 0 1 23 0)"/><path d="m1.5 9.5v5h7v-5z" fill="#ff8c82" stroke="#c6262e" stroke-linecap="round" stroke-linejoin="round" stroke-miterlimit="3"/><path d="m2.5 10.5h5v3" fill="none" opacity=".5" stroke="#fff" stroke-linecap="square"/></g></svg>

<?xml version="1.0" encoding="UTF-8" standalone="no"?>
<svg
   xmlns:dc="http://purl.org/dc/elements/1.1/"
   xmlns:cc="http://creativecommons.org/ns#"
   xmlns:rdf="http://www.w3.org/1999/02/22-rdf-syntax-ns#"
   xmlns:svg="http://www.w3.org/2000/svg"
   xmlns="http://www.w3.org/2000/svg"
   xmlns:xlink="http://www.w3.org/1999/xlink"
   xmlns:sodipodi="http://sodipodi.sourceforge.net/DTD/sodipodi-0.dtd"
   xmlns:inkscape="http://www.inkscape.org/namespaces/inkscape"
   height="24"
   width="24"
   version="1.1"
   id="svg4473"
   sodipodi:docname="lc_dataconsolidate.svg"
   inkscape:version="0.92.3 (unknown)"
   inkscape:export-filename="/home/rizmut/Dokumen/Rizmut/Github/libreoffice-style-elementary/images_elementary/cmd/lc_dataconsolidate.png"
   inkscape:export-xdpi="96"
   inkscape:export-ydpi="96">
  <metadata
     id="metadata4479">
    <rdf:RDF>
      <cc:Work
         rdf:about="">
        <dc:format>image/svg+xml</dc:format>
        <dc:type
           rdf:resource="http://purl.org/dc/dcmitype/StillImage" />
        <dc:title></dc:title>
      </cc:Work>
    </rdf:RDF>
  </metadata>
  <defs
     id="defs4477">
    <linearGradient
       inkscape:collect="always"
       xlink:href="#l"
       id="linearGradient5032"
       gradientUnits="userSpaceOnUse"
       gradientTransform="matrix(0.44576989,0,0,0.44993664,0.801525,-0.024539)"
       x1="26.243305"
       y1="4.354743"
       x2="26.243305"
       y2="57.840454" />
    <radialGradient
       id="a-3"
       cx="65.297462"
       cy="48.216358"
       gradientTransform="matrix(0,0.38212918,-0.4161614,0,32.170797,-18.821396)"
       gradientUnits="userSpaceOnUse"
       r="31.000002">
      <stop
         offset="0"
         stop-color="#cdf87e"
         id="stop3505" />
      <stop
         offset=".26238"
         stop-color="#a2e34f"
         id="stop3507" />
      <stop
         offset=".66093999"
         stop-color="#68b723"
         id="stop3509" />
      <stop
         offset="1"
         stop-color="#1d7e0d"
         id="stop3511" />
    </radialGradient>
    <linearGradient
       id="b-6"
       gradientTransform="matrix(0.20515598,0,0,0.20369724,7.420038,5.278451)"
       gradientUnits="userSpaceOnUse"
       x1="24.138529"
       x2="24.138529"
       y1="10.631441"
       y2="35.62291">
      <stop
         offset="0"
         stop-color="#fff"
         id="stop3514" />
      <stop
         offset=".00000002"
         stop-color="#fff"
         stop-opacity=".235294"
         id="stop3516" />
      <stop
         offset="1"
         stop-color="#fff"
         stop-opacity=".156863"
         id="stop3518" />
      <stop
         offset="1"
         stop-color="#fff"
         stop-opacity=".392157"
         id="stop3520" />
    </linearGradient>
    <linearGradient
       id="c-7"
       gradientTransform="matrix(0.20515598,0,0,0.20369724,7.407064,5.283756)"
       gradientUnits="userSpaceOnUse"
       x1="24.138529"
       x2="24.138529"
       y1="21.34207"
       y2="24.912279">
      <stop
         offset="0"
         stop-color="#fff"
         id="stop3523" />
      <stop
         offset=".00000019"
         stop-color="#fff"
         stop-opacity=".235294"
         id="stop3525" />
      <stop
         offset="1"
         stop-color="#fff"
         stop-opacity=".156863"
         id="stop3527" />
      <stop
         offset="1"
         stop-color="#fff"
         stop-opacity=".392157"
         id="stop3529" />
    </linearGradient>
  </defs>
  <sodipodi:namedview
     pagecolor="#ffffff"
     bordercolor="#666666"
     borderopacity="1"
     objecttolerance="10"
     gridtolerance="10"
     guidetolerance="10"
     inkscape:pageopacity="0"
     inkscape:pageshadow="2"
     inkscape:window-width="1366"
     inkscape:window-height="706"
     id="namedview4475"
     showgrid="true"
     inkscape:zoom="13.906434"
     inkscape:cx="16.762631"
     inkscape:cy="14.729028"
     inkscape:window-x="0"
     inkscape:window-y="0"
     inkscape:window-maximized="1"
     inkscape:current-layer="g5211">
    <inkscape:grid
       type="xygrid"
       id="grid5024"
       spacingx="0.5"
       spacingy="0.5"
       empspacing="2" />
  </sodipodi:namedview>
  <linearGradient
     id="a"
     gradientUnits="userSpaceOnUse"
     x1="14.417044"
     x2="1.164339"
     y1="4.476628"
     y2="10.218431">
    <stop
       offset="0"
       stop-color="#fff"
       id="stop4391" />
    <stop
       offset="1"
       stop-color="#fff"
       stop-opacity="0"
       id="stop4393" />
  </linearGradient>
  <radialGradient
     id="b"
     cx="6.702713"
     cy="73.615715"
     gradientTransform="matrix(1.6600963 0 0 .36315008 .963735 -6.267669)"
     gradientUnits="userSpaceOnUse"
     r="7.228416">
    <stop
       offset="0"
       id="stop4396" />
    <stop
       offset="1"
       stop-opacity="0"
       id="stop4398" />
  </radialGradient>
  <linearGradient
     id="c"
     gradientUnits="userSpaceOnUse"
     x1=".655513"
     x2="14.727656"
     xlink:href="#d"
     y1="11.822087"
     y2="1.32404" />
  <linearGradient
     id="d">
    <stop
       offset="0"
       stop-color="#fff3cb"
       id="stop4402" />
    <stop
       offset=".26238"
       stop-color="#fdde76"
       id="stop4404" />
    <stop
       offset=".66093999"
       stop-color="#f9c440"
       id="stop4406" />
    <stop
       offset="1"
       stop-color="#e48b20"
       id="stop4408" />
  </linearGradient>
  <radialGradient
     id="e"
     cx="32.5"
     cy="16.5625"
     gradientTransform="matrix(.13600338 .32887282 -.25782279 .11298813 11.149645 -7.537857)"
     gradientUnits="userSpaceOnUse"
     r="14.4375"
     xlink:href="#d" />
  <filter
     id="f"
     color-interpolation-filters="sRGB"
     height="1.324258"
     width="1.386852"
     x="-.193426"
     y="-.162129">
    <feGaussianBlur
       stdDeviation=".67849208"
       id="feGaussianBlur4412" />
  </filter>
  <linearGradient
     id="g"
     gradientTransform="matrix(.26725589 0 0 1.157552 9.315594 -10.704165)"
     gradientUnits="userSpaceOnUse"
     x1="-32.957481"
     x2="-25.474016"
     y1="27.388975"
     y2="27.388975">
    <stop
       offset="0"
       stop-color="#2e3436"
       id="stop4415" />
    <stop
       offset=".64444447"
       stop-color="#888a85"
       id="stop4417" />
    <stop
       offset="1"
       stop-color="#555753"
       id="stop4419" />
  </linearGradient>
  <linearGradient
     id="h"
     gradientTransform="matrix(.77602087 .23906428 -.31605097 .56747902 -20.167798 4.551095)"
     gradientUnits="userSpaceOnUse"
     x1="27.52779"
     x2="30.419695"
     y1="4.16702"
     y2="2.948735">
    <stop
       offset="0"
       stop-color="#eeeeec"
       id="stop4422" />
    <stop
       offset=".78888887"
       stop-color="#fff"
       id="stop4424" />
    <stop
       offset="1"
       stop-color="#eeeeec"
       id="stop4426" />
  </linearGradient>
  <linearGradient
     id="i"
     gradientTransform="matrix(0.44576989,0,0,0.44993664,0.801525,-0.024539)"
     gradientUnits="userSpaceOnUse"
     x1="26.243305"
     x2="26.243305"
     xlink:href="#l"
     y1="17.83482"
     y2="73.398201" />
  <linearGradient
     id="j"
     gradientTransform="matrix(0.44576989,0,0,0.44993664,0.801525,-0.024539)"
     gradientUnits="userSpaceOnUse"
     x1="26.243305"
     x2="26.243305"
     xlink:href="#l"
     y1="33.392567"
     y2="88.955948" />
  <linearGradient
     id="k"
     gradientTransform="matrix(0.44576989,0,0,0.44993664,0.801525,-0.024539)"
     gradientUnits="userSpaceOnUse"
     x1="26.243305"
     x2="26.243305"
     xlink:href="#l"
     y1="4.354743"
     y2="57.840454" />
  <linearGradient
     id="l"
     gradientTransform="matrix(.44576989 0 0 .44993664 .801525 -.024539)"
     gradientUnits="userSpaceOnUse"
     x1="25.132275"
     x2="25.132275"
     y1="15.499894"
     y2="48.395687">
    <stop
       offset="0"
       stop-color="#fafafa"
       id="stop4432" />
    <stop
       offset="1"
       stop-color="#e2e1de"
       id="stop4434" />
  </linearGradient>
  <g
     id="g5211"
     transform="matrix(-1,0,0,1,23,0)">
    <g
       id="g4441"
       transform="translate(0,-6)">
      <rect
         style="fill:url(#k)"
         id="rect4437"
         y="18.5"
         x="16.5"
         width="5"
         ry="0.555556"
         rx="0.52777803"
         height="4" />
      <path
         style="fill:none;stroke:#575757;stroke-linecap:square;stroke-linejoin:round;stroke-opacity:0.5294117"
         inkscape:connector-curvature="0"
         id="path4439"
         d="m 16.5,18.5 h 5 v 4 h -5 z" />
    </g>
    <g
       id="g4447"
       transform="translate(0,-11)">
      <rect
         style="fill:url(#i)"
         id="rect4443"
         y="18.5"
         x="16.5"
         width="5"
         ry="0.555556"
         rx="0.52777803"
         height="4" />
      <path
         style="fill:none;stroke:#575757;stroke-linecap:square;stroke-linejoin:round;stroke-opacity:0.52941176"
         inkscape:connector-curvature="0"
         id="path4445"
         d="m 16.5,18.5 h 5 v 4 h -5 z" />
    </g>
    <g
       id="g4453"
       transform="translate(0,-16)">
      <rect
         style="fill:url(#j)"
         id="rect4449"
         y="18.5"
         x="16.5"
         width="5"
         ry="0.555556"
         rx="0.52777803"
         height="4" />
      <path
         style="fill:none;stroke:#575757;stroke-linecap:square;stroke-linejoin:round;stroke-opacity:0.52941182"
         inkscape:connector-curvature="0"
         id="path4451"
         d="m 16.5,18.5 h 5 v 4 h -5 z" />
    </g>
    <g
       id="g5030"
       transform="translate(0,-1)">
      <rect
         style="fill:url(#linearGradient5032)"
         height="4"
         rx="0.52777803"
         ry="0.555556"
         width="5"
         x="16.5"
         y="18.5"
         id="rect5026" />
      <path
         style="fill:none;stroke:#575757;stroke-linecap:square;stroke-linejoin:round;stroke-opacity:0.52941165"
         inkscape:connector-curvature="0"
         d="m 16.5,18.5 h 5 v 4 h -5 z"
         id="path5028" />
    </g>
    <path
       style="fill:#fcaf3e;stroke:#ce5c00;stroke-linecap:square"
       d="M 8.5 2.5 L 8.5 4.5 L 10.5 4.5 L 10.5 11.5 L 10.5 19.5 L 8.5 19.5 L 8.5 21.5 L 10.5 21.5 L 12.5 21.5 L 12.5 11.5 L 12.5 2.5 L 10.5 2.5 L 8.5 2.5 z "
       transform="matrix(-1,0,0,1,23,0)"
       id="path5430" />
    <path
       inkscape:connector-curvature="0"
       style="fill:#ff8c82;stroke:#c6262e;stroke-linecap:round;stroke-linejoin:round;stroke-miterlimit:3;stroke-opacity:1"
       d="m 1.5,9.5 v 5 h 7 v -5 z"
       stroke-miterlimit="3"
       id="path4626"
       sodipodi:nodetypes="ccccc" />
    <path
       inkscape:connector-curvature="0"
       style="opacity:0.5;fill:none;stroke:#ffffff;stroke-linecap:square"
       d="m 2.5,10.5 h 5 v 3"
       id="path4628"
       sodipodi:nodetypes="ccc" />
  </g>
</svg>
